public/assets/logos/xano.svg

<svg width="311" height="76" viewBox="0 0 311 76" fill="none" xmlns="http://www.w3.org/2000/svg">
<mask id="mask0_319_359" style="mask-type:luminance" maskUnits="userSpaceOnUse" x="0" y="0" width="311" height="76">
<path d="M311 0.59375H0.472656V75.1203H311V0.59375Z" fill="white"/>
</mask>
<g mask="url(#mask0_319_359)">
<path d="M136.267 6.80126C135.524 5.48041 134.527 4.31953 133.334 3.38546C131.938 2.34458 130.235 1.79985 128.494 1.83779C126.758 1.80567 125.059 2.33957 123.654 3.35876C122.439 4.27553 121.426 5.43282 120.679 6.75841L91.6953 55.0827L103.988 66.8659L128.103 25.9614L138.407 43.2758H123.005L116.02 55.364L145.582 55.4261L153.85 69.2974H173.878L136.267 6.80126Z" fill="#0E99E1"/>
<path d="M209.95 2.17093V41.9693L172.687 4.99424C171.782 4.05256 170.718 3.27783 169.544 2.70566C168.428 2.18666 167.211 1.9179 165.98 1.91816C164.787 1.88496 163.602 2.11712 162.51 2.59787C161.418 3.07862 160.447 3.79594 159.666 4.698C158.149 6.57224 157.366 8.93422 157.463 11.3433V36.4618L173.766 63.7516V29.575L210.866 66.8885C212.964 68.9821 215.324 70.0454 217.895 70.0454C219.054 70.0671 220.204 69.834 221.264 69.3627C222.324 68.8914 223.267 68.1933 224.027 67.3177C225.505 65.6297 226.254 63.3696 226.254 60.6103V2.17093H209.95Z" fill="#0E99E1"/>
<path d="M305.921 22.2039C304.422 18.2995 302.118 14.7538 299.161 11.7966C296.203 8.8393 292.657 6.53648 288.752 5.03731C284.558 3.41799 280.094 2.60895 275.598 2.65308H260.912C256.53 2.61596 252.181 3.40872 248.094 4.98949C244.235 6.49909 240.719 8.76934 237.756 11.6652C234.767 14.6208 232.43 18.1684 230.894 22.0803C229.235 26.3095 228.405 30.8178 228.448 35.3603C228.414 39.9226 229.232 44.451 230.861 48.713C232.395 52.7239 234.707 56.3915 237.666 59.5044C240.604 62.5562 244.115 64.9983 247.999 66.6907C252.078 68.464 256.483 69.3607 260.931 69.3227H275.608C282.162 69.4258 288.588 67.5028 294.007 63.8165C299.427 60.1302 303.576 54.8605 305.888 48.7273C307.518 44.4657 308.336 39.937 308.301 35.3746C308.351 30.8731 307.544 26.4032 305.921 22.2039ZM275.608 52.4983H260.912C258.758 52.5197 256.622 52.0969 254.639 51.2562C252.786 50.4696 251.113 49.3127 249.723 47.8565C248.302 46.3408 247.197 44.5578 246.471 42.6111C245.657 40.4505 245.249 38.1579 245.269 35.8491C245.238 33.5465 245.642 31.2587 246.461 29.1063C247.194 27.2037 248.296 25.4648 249.703 23.9894C251.095 22.5551 252.765 21.4193 254.61 20.6512C256.61 19.8427 258.752 19.4437 260.909 19.4781H275.606C277.812 19.4534 280.001 19.8678 282.045 20.6972C283.936 21.4522 285.648 22.5957 287.07 24.0537C288.492 25.5117 289.592 27.2518 290.299 29.1616C291.116 31.3024 291.524 33.5776 291.501 35.8689C291.521 38.1778 291.114 40.4704 290.299 42.631C289.569 44.5726 288.455 46.347 287.023 47.8479C285.6 49.3104 283.897 50.472 282.016 51.2637C279.986 52.1071 277.806 52.5268 275.608 52.4983Z" fill="#0E99E1"/>
<path d="M69.297 34.0429L102.458 2.66602H73.3122L54.7246 20.2568L69.1877 33.9374L69.297 34.0429Z" fill="#0461BD"/>
<path d="M69.1887 38.0249L54.7256 51.7104L73.3131 69.2968H102.459L69.298 37.9199L69.1887 38.0249Z" fill="#0461BD"/>
<path d="M32.042 2.66602H2.89648L38.1022 35.9837L2.89648 69.2965H32.042L67.2558 35.9837L32.042 2.66602Z" fill="#0E99E1"/>
</g>
</svg>

<svg xmlns="http://www.w3.org/2000/svg" width="311" height="76" fill="none" xmlns:v="https://vecta.io/nano"><mask id="A" maskUnits="userSpaceOnUse" x="0" y="0" width="311" height="76"><path d="M311 .594H.473V75.12H311V.594z" fill="#fff"/></mask><g mask="url(#A)"><path d="M136.267 6.801a11.5 11.5 0 0 0-2.933-3.416 7.81 7.81 0 0 0-4.84-1.548 7.99 7.99 0 0 0-4.84 1.521c-1.215.917-2.228 2.074-2.975 3.4L91.695 55.083l12.293 11.783 24.115-40.904 10.304 17.314h-15.402l-6.985 12.088 29.562.062 8.268 13.871h20.028L136.267 6.801zm73.683-4.63v39.798L172.687 4.994a11.11 11.11 0 0 0-3.143-2.289 8.45 8.45 0 0 0-3.564-.787c-1.193-.033-2.378.199-3.47.68a8.06 8.06 0 0 0-2.844 2.1 9.93 9.93 0 0 0-2.203 6.645v25.118l16.303 27.29V29.575l37.1 37.313c2.098 2.094 4.458 3.157 7.029 3.157a7.91 7.91 0 0 0 3.369-.683 7.92 7.92 0 0 0 2.763-2.045c1.478-1.688 2.227-3.948 2.227-6.707V2.171H209.95zm95.971 20.033c-1.499-3.904-3.803-7.45-6.76-10.407a29.85 29.85 0 0 0-10.409-6.759 35.56 35.56 0 0 0-13.154-2.384h-14.686c-4.382-.037-8.731.756-12.818 2.336a30.89 30.89 0 0 0-10.338 6.676 30.14 30.14 0 0 0-6.862 10.415c-1.659 4.229-2.489 8.737-2.446 13.28-.034 4.562.784 9.091 2.413 13.353 1.534 4.011 3.846 7.679 6.805 10.791 2.938 3.052 6.449 5.494 10.333 7.186a31.76 31.76 0 0 0 12.932 2.632h14.677c6.554.103 12.98-1.82 18.399-5.506a31.83 31.83 0 0 0 11.881-15.089 36.59 36.59 0 0 0 2.413-13.353 35.44 35.44 0 0 0-2.38-13.171zm-30.313 30.294h-14.696c-2.154.021-4.29-.401-6.273-1.242a14.78 14.78 0 0 1-4.916-3.4 15.68 15.68 0 0 1-3.252-5.245 18.72 18.72 0 0 1-1.202-6.762 18.27 18.27 0 0 1 1.192-6.743 15.47 15.47 0 0 1 3.242-5.117c1.392-1.434 3.062-2.57 4.907-3.338a16.12 16.12 0 0 1 6.299-1.173h14.697a16.63 16.63 0 0 1 6.439 1.219 14.56 14.56 0 0 1 5.025 3.357 14.55 14.55 0 0 1 3.229 5.108c.817 2.141 1.225 4.416 1.202 6.707a18.7 18.7 0 0 1-1.202 6.762c-.73 1.942-1.844 3.716-3.276 5.217a15.23 15.23 0 0 1-5.007 3.416 16.17 16.17 0 0 1-6.408 1.235z" fill="#0e99e1"/><path d="M69.297 34.043l33.161-31.377H73.312L54.725 20.257l14.463 13.681.109.106zm-.108 3.982L54.726 51.71l18.588 17.586h29.146L69.298 37.92l-.109.105z" fill="#0461bd"/><path d="M32.042 2.666H2.896l35.206 33.318L2.896 69.297h29.146l35.214-33.313L32.042 2.666z" fill="#0e99e1"/></g></svg>
